img/bullet-x.svg

<svg fill="none" height="36" viewBox="0 0 36 36" width="36" xmlns="http://www.w3.org/2000/svg"><path d="m18 36c9.9414 0 18-8.0589 18-18 0-3.293-.8867-6.3794-2.4297-9.03485l-15.5703 15.57035-6.2695-6.2677c-.9727-.9764-.9727-2.5592 0-3.5356.9765-.9763 2.5625-.9763 3.539 0l2.7305 2.7323 12.457-12.45809c-3.2343-3.10089-7.6211-5.00641-12.457-5.00641-9.94141 0-18 8.0589-18 18s8.05859 18 18 18z" fill="#d9d9d9"/></svg>

<svg width="36" height="36" viewBox="0 0 36 36" fill="none" xmlns="http://www.w3.org/2000/svg">
<path d="M18 36C27.9414 36 36 27.9411 36 18C36 14.707 35.1133 11.6206 33.5703 8.96515L18 24.5355L11.7305 18.2678C10.7578 17.2914 10.7578 15.7086 11.7305 14.7322C12.707 13.7559 14.293 13.7559 15.2695 14.7322L18 17.4645L30.457 5.00641C27.2227 1.90552 22.8359 0 18 0C8.05859 0 0 8.0589 0 18C0 27.9411 8.05859 36 18 36Z" fill="#D9D9D9"/>
</svg>
